Catalina-dark/actions/16/view-calendar-month.svg

<svg width="16" height="16" version="1.1" viewBox="0 0 16 16" xmlns="http://www.w3.org/2000/svg">
<defs>
<style id="current-color-scheme" type="text/css">.ColorScheme-Text { color:#5c616c; } .ColorScheme-Highlight { color:#5294e2; }</style>
</defs>
<path class="ColorScheme-Text" d="m3 1c-2.25 0-2 2-2 2v12h14v-12c0-2-2-2-2-2h-10zm0 2h10v10h-10v-2.5-7.5zm1 1v2h2v-2h-2zm3 0v2h2v-2h-2zm3 0v2h2v-2h-2zm-6 3v2h2v-2h-2zm3 0v2h2v-2h-2zm3 0v2h2v-2h-2zm-6 3v2h2v-2h-2zm3 0v2h2v-2h-2zm3 0v2h2v-2h-2z" fill="#f1f6f8" fill-opacity=".85098"/>
</svg>

<?xml version="1.0" encoding="UTF-8" standalone="no"?>
<svg
   xmlns:dc="http://purl.org/dc/elements/1.1/"
   xmlns:cc="http://creativecommons.org/ns#"
   xmlns:rdf="http://www.w3.org/1999/02/22-rdf-syntax-ns#"
   xmlns:svg="http://www.w3.org/2000/svg"
   xmlns="http://www.w3.org/2000/svg"
   xmlns:sodipodi="http://sodipodi.sourceforge.net/DTD/sodipodi-0.dtd"
   xmlns:inkscape="http://www.inkscape.org/namespaces/inkscape"
   width="16"
   height="16"
   viewBox="0 0 16 16"
   version="1.1"
   id="svg7"
   sodipodi:docname="view-calendar-month.svg"
   inkscape:version="0.92.4 5da689c313, 2019-01-14">
  <metadata
     id="metadata11">
    <rdf:RDF>
      <cc:Work
         rdf:about="">
        <dc:format>image/svg+xml</dc:format>
        <dc:type
           rdf:resource="http://purl.org/dc/dcmitype/StillImage" />
      </cc:Work>
    </rdf:RDF>
  </metadata>
  <sodipodi:namedview
     pagecolor="#ffffff"
     bordercolor="#666666"
     borderopacity="1"
     objecttolerance="10"
     gridtolerance="10"
     guidetolerance="10"
     inkscape:pageopacity="0"
     inkscape:pageshadow="2"
     inkscape:window-width="715"
     inkscape:window-height="480"
     id="namedview9"
     showgrid="false"
     inkscape:zoom="14.75"
     inkscape:cx="-0.54237288"
     inkscape:cy="8"
     inkscape:window-x="0"
     inkscape:window-y="26"
     inkscape:window-maximized="0"
     inkscape:current-layer="svg7" />
  <defs
     id="defs3">
    <style
       id="current-color-scheme"
       type="text/css">
   .ColorScheme-Text { color:#5c616c; } .ColorScheme-Highlight { color:#5294e2; }
  </style>
  </defs>
  <path
     style="fill:#f1f6f8;fill-opacity:0.8509804"
     class="ColorScheme-Text"
     d="M 3 1 C 0.75 1 1 3 1 3 L 1 15 L 15 15 L 15 3 C 15 1 13 1 13 1 L 3 1 z M 3 3 L 13 3 L 13 13 L 3 13 L 3 10.5 L 3 3 z M 4 4 L 4 6 L 6 6 L 6 4 L 4 4 z M 7 4 L 7 6 L 9 6 L 9 4 L 7 4 z M 10 4 L 10 6 L 12 6 L 12 4 L 10 4 z M 4 7 L 4 9 L 6 9 L 6 7 L 4 7 z M 7 7 L 7 9 L 9 9 L 9 7 L 7 7 z M 10 7 L 10 9 L 12 9 L 12 7 L 10 7 z M 4 10 L 4 12 L 6 12 L 6 10 L 4 10 z M 7 10 L 7 12 L 9 12 L 9 10 L 7 10 z M 10 10 L 10 12 L 12 12 L 12 10 L 10 10 z"
     id="path5" />
</svg>
